X:223
T:Mr McKinley
Z:Jack Campin, http://www.campin.me.uk/
F:Jack Campin's Nine-Note Tunebook
% last edit 03-02-2013
G:ballad on McKinley's assassination
S:The Week-End Book, 1950s
M:4/4
L:1/8
K:F
z4      |cc2A d   c2c|    d c2F A2
      zA|BA2F B/B/A2F|    FF EF F||
 G/G/ AG|F2C2 z   GGA|({A}F4)    |]

